Newaita-dark/actions/32/align-horizontal-baseline.svg

<svg height="32" viewBox="0 0 32 32" width="32" xmlns="http://www.w3.org/2000/svg"><g fill="#e0e0e0"><path d="m6.613281 2.894531c.734375 0 1.324219.59375 1.324219 1.324219v23.816406c0 .730469-.589844 1.320313-1.324219 1.320313-.730469 0-1.320312-.589844-1.320312-1.320313v-23.816406c0-.730469.589843-1.324219 1.320312-1.324219zm0 0"/><path d="m18.523438 5.542969c-4.398438 0-7.9375 3.539062-7.9375 7.9375v12.570312c0 .363281.292968.660157.660156.660157h1.324218c.363282 0 .660157-.296876.660157-.660157v-12.570312c0-2.933594 2.359375-5.292969 5.292969-5.292969 2.929687 0 5.292968 2.359375 5.292968 5.292969v12.570312c0 .363281.292969.660157.660156.660157h1.324219c.363281 0 .660157-.296876.660157-.660157v-12.570312c0-4.398438-3.539063-7.9375-7.9375-7.9375zm0 0"/><path d="m12.570312 16.789062h12.566407c.367187 0 .664062.296876.664062.660157v1.324219c0 .363281-.296875.660156-.664062.660156h-12.566407c-.367187 0-.664062-.296875-.664062-.660156v-1.324219c0-.363281.296875-.660157.664062-.660157zm0 0"/></g></svg>

<?xml version="1.0" encoding="UTF-8"?>
<svg xmlns="http://www.w3.org/2000/svg" xmlns:xlink="http://www.w3.org/1999/xlink" width="32px" height="32px" viewBox="0 0 32 32" version="1.1">
<g id="surface1">
<path style=" stroke:none;fill-rule:nonzero;fill:rgb(87.843138%,87.843138%,87.843138%);fill-opacity:1;" d="M 6.613281 2.894531 C 7.347656 2.894531 7.9375 3.488281 7.9375 4.21875 L 7.9375 28.035156 C 7.9375 28.765625 7.347656 29.355469 6.613281 29.355469 C 5.882812 29.355469 5.292969 28.765625 5.292969 28.035156 L 5.292969 4.21875 C 5.292969 3.488281 5.882812 2.894531 6.613281 2.894531 Z M 6.613281 2.894531 "/>
<path style=" stroke:none;fill-rule:nonzero;fill:rgb(87.843138%,87.843138%,87.843138%);fill-opacity:1;" d="M 18.523438 5.542969 C 14.125 5.542969 10.585938 9.082031 10.585938 13.480469 L 10.585938 26.050781 C 10.585938 26.414062 10.878906 26.710938 11.246094 26.710938 L 12.570312 26.710938 C 12.933594 26.710938 13.230469 26.414062 13.230469 26.050781 L 13.230469 13.480469 C 13.230469 10.546875 15.589844 8.1875 18.523438 8.1875 C 21.453125 8.1875 23.816406 10.546875 23.816406 13.480469 L 23.816406 26.050781 C 23.816406 26.414062 24.109375 26.710938 24.476562 26.710938 L 25.800781 26.710938 C 26.164062 26.710938 26.460938 26.414062 26.460938 26.050781 L 26.460938 13.480469 C 26.460938 9.082031 22.921875 5.542969 18.523438 5.542969 Z M 18.523438 5.542969 "/>
<path style=" stroke:none;fill-rule:nonzero;fill:rgb(87.843138%,87.843138%,87.843138%);fill-opacity:1;" d="M 12.570312 16.789062 L 25.136719 16.789062 C 25.503906 16.789062 25.800781 17.085938 25.800781 17.449219 L 25.800781 18.773438 C 25.800781 19.136719 25.503906 19.433594 25.136719 19.433594 L 12.570312 19.433594 C 12.203125 19.433594 11.90625 19.136719 11.90625 18.773438 L 11.90625 17.449219 C 11.90625 17.085938 12.203125 16.789062 12.570312 16.789062 Z M 12.570312 16.789062 "/>
</g>
</svg>
